woocommerce/payment-gateway/assets/images/card-cc-invalid.svg

<?xml version="1.0" encoding="UTF-8" standalone="no"?>
<svg width="128px" height="80px" viewBox="0 0 128 80" version="1.1" xmlns="http://www.w3.org/2000/svg" xmlns:xlink="http://www.w3.org/1999/xlink">
    <!-- Generator: Sketch 40.1 (33804) - http://www.bohemiancoding.com/sketch -->
    <title>Slice 1</title>
    <desc>Created with Sketch.</desc>
    <defs></defs>
    <g id="Page-1" stroke="none" stroke-width="1" fill="none" fill-rule="evenodd">
        <g id="card-cc-plain" opacity="0.5" transform="translate(10.000000, 7.000000)">
            <path d="M3.66265625,68.8921875 C1.70328125,68.8921875 0.107421875,67.290525 0.107421875,65.3214375 L0.107421875,3.6802875 C0.107421875,1.7112 1.7015625,0.1078125 3.66265625,0.1078125 L106.327891,0.1078125 C108.293281,0.1078125 109.892578,1.7103375 109.892578,3.68115 L109.892578,65.3214375 C109.892578,67.290525 108.294141,68.8921875 106.327891,68.8921875 L3.66265625,68.8921875 L3.66265625,68.8921875 Z" id="Shape" fill="#FFFFFF"></path>
            <path d="M106.327891,0.215625 C108.235703,0.215625 109.785156,1.76985 109.785156,3.68115 L109.785156,65.3214375 C109.785156,67.2310125 108.233984,68.7852375 106.327891,68.7852375 L3.66265625,68.7852375 C1.76171875,68.784375 0.21484375,67.231875 0.21484375,65.3223 L0.21484375,3.68115 C0.21484375,1.7707125 1.76171875,0.215625 3.66265625,0.215625 L106.327891,0.215625 L106.327891,0.215625 Z M106.327891,0 L3.66265625,0 C1.63796875,0 0,1.647375 0,3.68115 L0,65.3214375 C0,67.352625 1.63796875,69 3.66265625,69 L106.327891,69 C108.356016,69 110,67.352625 110,65.320575 L110,3.68115 C110,1.647375 108.355156,0 106.327891,0 L106.327891,0 Z" id="Shape" fill="#848484"></path>
            <ellipse id="Oval" fill="#F2706C" cx="74.9976562" cy="49.6463625" rx="11.5001562" ry="11.541975"></ellipse>
            <ellipse id="Oval" fill="#8FD7F1" cx="86.4995312" cy="49.6463625" rx="11.5010156" ry="11.5428375"></ellipse>
            <polygon id="Shape" fill="#4A4A4A" points="0.00171875 12.790875 110 12.790875 110 25.624875 0.00171875 25.624875"></polygon>
            <path d="M9.68945312,38.103525 L48.2470312,38.103525 L48.2470312,42.2995875 L9.68945312,42.2995875 L9.68945312,38.103525 Z M9.68945312,47.5453125 L48.2470312,47.5453125 L48.2470312,51.7456875 L9.68945312,51.7456875 L9.68945312,47.5453125 Z M9.68945312,56.99055 L48.2470312,56.99055 L48.2470312,61.1883375 L9.68945312,61.1883375 L9.68945312,56.99055 Z" id="Shape" fill="#C9C9C9"></path>
        </g>
        <path d="M6,74 L122,6" id="Line" stroke="#F2706C" stroke-width="8" stroke-linecap="square"></path>
    </g>
</svg>

<svg width="128" height="80" viewBox="0 0 128 80" xmlns="http://www.w3.org/2000/svg"><title>Slice 1</title><g fill="none" fill-rule="evenodd"><g opacity=".5" transform="translate(10 7)"><path d="M3.663 68.892c-1.96 0-3.556-1.601-3.556-3.57V3.68C.107 1.711 1.702.108 3.663.108h102.665a3.573 3.573 0 0 1 3.565 3.573v61.64c0 1.97-1.599 3.571-3.565 3.571H3.663z" fill="#FFF"/><path d="M106.328.216a3.464 3.464 0 0 1 3.457 3.465v61.64a3.465 3.465 0 0 1-3.457 3.464H3.663a3.46 3.46 0 0 1-3.448-3.463V3.682C.215 1.77 1.762.215 3.663.215h102.665zm0-.216H3.663A3.67 3.67 0 0 0 0 3.681v61.64A3.67 3.67 0 0 0 3.663 69h102.665A3.676 3.676 0 0 0 110 65.32V3.682A3.677 3.677 0 0 0 106.328 0z" fill="#848484"/><ellipse fill="#F2706C" cx="74.998" cy="49.646" rx="11.5" ry="11.542"/><ellipse fill="#8FD7F1" cx="86.5" cy="49.646" rx="11.501" ry="11.543"/><path fill="#4A4A4A" d="M.002 12.79H110v12.835H.002z"/><path d="M9.69 38.104h38.557V42.3H9.689v-4.196zm0 9.441h38.557v4.2H9.689v-4.2zm0 9.446h38.557v4.197H9.689v-4.197z" fill="#C9C9C9"/></g><path d="M6 74L122 6" stroke="#F2706C" stroke-width="8" stroke-linecap="square"/></g></svg>
